image/icon4.svg

<svg fill="none" height="24" viewBox="0 0 24 24" width="24" xmlns="http://www.w3.org/2000/svg" xmlns:xlink="http://www.w3.org/1999/xlink"><clipPath id="a"><path d="m0 0h24v24h-24z"/></clipPath><g clip-path="url(#a)" fill="#1e1e1e"><path d="m21 1.5c.8284 0 1.5.67157 1.5 1.5v18c0 .8284-.6716 1.5-1.5 1.5h-18c-.82843 0-1.5-.6716-1.5-1.5v-18c0-.82843.67157-1.5 1.5-1.5zm-18-1.5c-1.65685 0-3 1.34315-3 3v18c0 1.6569 1.34315 3 3 3h18c1.6569 0 3-1.3431 3-3v-18c0-1.65685-1.3431-3-3-3z"/><path d="m16.4545 7.4545c.4393-.43934 1.1516-.43934 1.591 0 .4339.43396.4393 1.13422.016 1.57471l-5.9884 7.48539c-.0086.0108-.0178.0211-.0276.0309-.4394.4393-1.1517.4393-1.591 0l-3.96968-3.9697c-.43934-.4393-.43934-1.1516 0-1.591.43934-.4393 1.15165-.4393 1.59099 0l3.14029 3.1403 5.2086-6.63694c.0092-.01181.0192-.02305.0298-.03366z"/></g></svg>

<svg width="24" height="24" viewBox="0 0 24 24" fill="none" xmlns="http://www.w3.org/2000/svg">
<g clip-path="url(#clip0_2039_595)">
<path d="M21 1.5C21.8284 1.5 22.5 2.17157 22.5 3V21C22.5 21.8284 21.8284 22.5 21 22.5H3C2.17157 22.5 1.5 21.8284 1.5 21V3C1.5 2.17157 2.17157 1.5 3 1.5H21ZM3 0C1.34315 0 0 1.34315 0 3V21C0 22.6569 1.34315 24 3 24H21C22.6569 24 24 22.6569 24 21V3C24 1.34315 22.6569 0 21 0H3Z" fill="#1E1E1E"/>
<path d="M16.4545 7.4545C16.8938 7.01516 17.6061 7.01516 18.0455 7.4545C18.4794 7.88846 18.4848 8.58872 18.0615 9.02921L12.0731 16.5146C12.0645 16.5254 12.0553 16.5357 12.0455 16.5455C11.6061 16.9848 10.8938 16.9848 10.4545 16.5455L6.48482 12.5758C6.04548 12.1365 6.04548 11.4242 6.48482 10.9848C6.92416 10.5455 7.63647 10.5455 8.07581 10.9848L11.2161 14.1251L16.4247 7.48816C16.4339 7.47635 16.4439 7.46511 16.4545 7.4545Z" fill="#1E1E1E"/>
</g>
<defs>
<clipPath id="clip0_2039_595">
<rect width="24" height="24" fill="white"/>
</clipPath>
</defs>
</svg>
